X:62
T:Blue Bell of Scotland. TJD.62
M:C
L:1/4
Q:1/4=140
S:T.J.Dixon MS2, Lincolnshire, early 19thC
R:song
A:Lincolnshire, Holton le Moor
Z:vmp.R.Greig2010
K:D
d2cB|A3(3B/c/d/|FFGE|D2zA|d2cB|A3(3B/c/d/|FFGE|D2|
|:A|F>DFA|d2Bd|cAB^G|A2AA|edcB|A3(3B/c/d/|FFGE|D2:|]

